Sources/FrostedUI/Resources/Icons.xcassets/mobilePhoneSize16.imageset/mobile-phone-size-16.svg

<svg
  width="16"
  height="16"
  viewBox="0 0 16 16"
  fill="none"
  xmlns="http://www.w3.org/2000/svg"
  data-fui-icon="true"
>
  <path
    d="M6.50004 12.3958H9.50004M5.83337 14.8333H10.1667C11.2713 14.8333 12.1667 13.9379 12.1667 12.8333V3.16667C12.1667 2.0621 11.2713 1.16667 10.1667 1.16667H5.83337C4.72881 1.16667 3.83337 2.0621 3.83337 3.16667V12.8333C3.83337 13.9379 4.72881 14.8333 5.83337 14.8333Z"
    stroke="currentColor"
    stroke-width="1.5"
    stroke-linecap="round"
    stroke-linejoin="round"
  />
</svg>

<svg xmlns="http://www.w3.org/2000/svg" width="16" height="16" fill="none" data-fui-icon="true" viewBox="0 0 16 16"><path stroke="currentColor" stroke-linecap="round" stroke-linejoin="round" stroke-width="1.5" d="M6.5 12.396h3m-3.667 2.437h4.334a2 2 0 0 0 2-2V3.167a2 2 0 0 0-2-2H5.833a2 2 0 0 0-2 2v9.666a2 2 0 0 0 2 2"/></svg>
